X: 10571
T: LADY BAIRD'S STRATHSPEY
R: strathspey
B: "Edinburgh Repository of Music" v.1 p.57 #1
F: http://digital.nls.uk/special-collections-of-printed-music/pageturner.cfm?id=87776133
Z: 2015 John Chambers <jc:trillian.mit.edu>
M: C
L: 1/8
K: A
a |\
e<c-c>B A>BAE | F>AE>A FAEa |\
e<c-c>B {B}A>GAB | c<ee^d e3 :|
|: !p!=g |\
f<dTdB Tc>dec | d<BB>G A>BcE |\
!f!F>AE>A F>AE>d | {d}c.B/.A/ {c}B.A/.G/ A2A :|

%%sep 2 1 500
%%sep 1 1 500

